X: 16148
T: Green Hills Of Tyrol, The
R: waltz
M: 3/4
K: Amixolydian
c3 A cd|e3 f cf|ed B3f|ec AE AB|
c2 cA cd|e2 ef cf|ed BA cB|1 A3:|2 A2 A2 de||
f2 a2 gf|fe e2 ef|ed d2 de|dc c2 de|
f2 a2 gf|fe e2 ef|ed dA cB|A3||

